P3
50 28
255
216 233 255
216 233 255
216 233 255
216 233 255
216 233 255
216 233 255
216 233 255
216 232 255
216 232 255
216 232 255
216 232 255
216 232 255
216 232 255
216 232 255
216 232 255
216 232 255
216 232 255
216 232 255
216 232 255
216 232 255
216 232 255
216 232 255
216 232 255
216 232 255
216 232 255
216 232 255
216 232 255
216 232 255
216 232 255
216 232 255
216 232 255
216 232 255
216 232 255
216 232 255
216 232 255
216 232 255
216 232 255
216 232 255
216 232 255
216 232 255
216 232 255
216 232 255
216 232 255
216 233 255
216 233 255
216 233 255
216 233 255
216 233 255
216 233 255
216 233 255
217 233 255
217 233 255
217 233 255
217 233 255
217 233 255
216 233 255
216 233 255
216 233 255
216 233 255
216 233 255
216 233 255
216 233 255
216 233 255
216 233 255
216 233 255
216 233 255
216 233 255
216 233 255
216 233 255
216 233 255
216 233 255
216 233 255
216 233 255
216 233 255
216 233 255
216 233 255
216 233 255
216 233 255
216 233 255
216 233 255
216 233 255
216 233 255
216 233 255
216 233 255
216 233 255
216 233 255
216 233 255
216 233 255
216 233 255
216 233 255
216 233 255
216 233 255
216 233 255
216 233 255
217 233 255
217 233 255
217 233 255
217 233 255
217 233 255
217 233 255
217 233 255
217 233 255
217 233 255
217 233 255
217 233 255
217 233 255
217 233 255
217 233 255
217 233 255
217 233 255
217 233 255
217 233 255
217 233 255
217 233 255
217 233 255
217 233 255
217 233 255
217 233 255
217 233 255
217 233 255
217 233 255
217 233 255
217 233 255
217 233 255
217 233 255
217 233 255
217 233 255
217 233 255
217 233 255
217 233 255
217 233 255
217 233 255
217 233 255
217 233 255
217 233 255
217 233 255
217 233 255
217 233 255
217 233 255
217 233 255
217 233 255
217 233 255
217 233 255
217 233 255
217 233 255
217 233 255
217 233 255
217 233 255
217 233 255
217 233 255
218 234 255
218 234 255
218 234 255
218 234 255
218 234 255
218 234 255
218 234 255
218 234 255
218 234 255
218 234 255
218 234 255
218 234 255
218 234 255
218 234 255
218 234 255
218 234 255
218 234 255
218 233 255
218 233 255
218 233 255
218 233 255
218 233 255
218 233 255
218 233 255
218 233 255
218 233 255
218 233 255
218 233 255
218 233 255
218 233 255
218 233 255
218 233 255
218 234 255
218 234 255
218 234 255
218 234 255
218 234 255
218 234 255
218 234 255
218 234 255
218 234 255
218 234 255
218 234 255
218 234 255
218 234 255
218 234 255
218 234 255
218 234 255
218 234 255
218 234 255
219 234 255
218 234 255
218 234 255
218 234 255
218 234 255
218 234 255
218 234 255
218 234 255
218 234 255
218 234 255
218 234 255
218 234 255
218 234 255
218 234 255
218 234 255
218 234 255
218 234 255
218 234 255
218 234 255
218 234 255
218 234 255
218 234 255
218 234 255
218 234 255
218 234 255
218 234 255
218 234 255
218 234 255
218 234 255
218 234 255
218 234 255
218 234 255
218 234 255
218 234 255
218 234 255
218 234 255
218 234 255
218 234 255
218 234 255
218 234 255
218 234 255
218 234 255
218 234 255
218 234 255
218 234 255
218 234 255
218 234 255
218 234 255
219 234 255
219 234 255
219 234 255
219 234 255
219 234 255
219 234 255
219 234 255
219 234 255
219 234 255
219 234 255
219 234 255
219 234 255
219 234 255
219 234 255
219 234 255
219 234 255
219 234 255
219 234 255
219 234 255
219 234 255
219 234 255
219 234 255
219 234 255
219 234 255
219 234 255
219 234 255
219 234 255
219 234 255
219 234 255
219 234 255
219 234 255
219 234 255
219 234 255
219 234 255
219 234 255
219 234 255
219 234 255
219 234 255
219 234 255
219 234 255
219 234 255
219 234 255
219 234 255
219 234 255
219 234 255
219 234 255
219 234 255
219 234 255
219 234 255
219 234 255
219 234 255
219 234 255
220 235 255
220 235 255
220 235 255
220 235 255
220 235 255
220 235 255
220 235 255
220 235 255
220 235 255
220 235 255
220 235 255
220 235 255
220 235 255
220 235 255
220 235 255
220 235 255
220 235 255
220 235 255
220 235 255
220 235 255
220 235 255
220 235 255
220 235 255
220 235 255
220 235 255
220 235 255
220 235 255
220 235 255
220 235 255
220 235 255
220 235 255
220 235 255
220 235 255
220 235 255
220 235 255
220 235 255
220 235 255
220 235 255
220 235 255
220 235 255
220 235 255
220 235 255
220 235 255
220 235 255
220 235 255
220 235 255
220 235 255
220 235 255
220 235 255
220 235 255
220 235 255
220 235 255
220 235 255
220 235 255
220 235 255
220 235 255
220 235 255
220 235 255
220 235 255
220 235 255
220 235 255
220 235 255
220 235 255
220 235 255
220 235 255
220 235 255
220 235 255
220 235 255
220 235 255
220 235 255
220 235 255
220 235 255
220 235 255
220 235 255
220 235 255
220 235 255
220 235 255
220 235 255
220 235 255
220 235 255
220 235 255
220 235 255
220 235 255
220 235 255
220 235 255
220 235 255
220 235 255
220 235 255
220 235 255
220 235 255
220 235 255
220 235 255
220 235 255
220 235 255
220 235 255
220 235 255
220 235 255
220 235 255
220 235 255
220 235 255
221 235 255
221 235 255
221 235 255
221 235 255
221 235 255
221 235 255
221 235 255
221 235 255
221 235 255
221 235 255
221 235 255
221 235 255
221 235 255
221 235 255
221 235 255
221 235 255
221 235 255
203 212 227
208 218 235
220 235 255
221 235 255
221 235 255
221 235 255
221 235 255
210 225 245
209 224 244
220 235 255
221 235 255
221 235 255
221 235 255
221 235 255
221 235 255
221 235 255
213 225 243
210 222 240
220 234 254
221 235 255
221 235 255
221 235 255
221 235 255
221 235 255
221 235 255
221 235 255
221 235 255
221 235 255
221 235 255
221 235 255
221 235 255
221 235 255
221 235 255
222 236 255
222 236 255
222 236 255
222 236 255
222 236 255
222 236 255
222 236 255
222 236 255
222 236 255
222 236 255
222 236 255
222 236 255
222 236 255
222 236 255
222 236 255
219 232 251
155 147 149
120 95 77
120 96 78
162 158 163
222 236 255
222 236 255
220 234 254
158 173 195
113 131 150
111 128 164
156 177 204
218 232 252
222 236 255
222 236 255
222 236 255
219 233 252
185 194 206
156 168 181
154 167 181
166 176 187
209 221 237
222 236 255
222 236 255
222 236 255
222 236 255
222 236 255
222 236 255
222 236 255
222 236 255
222 236 255
222 236 255
222 236 255
222 236 255
222 236 255
222 236 255
222 236 255
222 236 255
222 236 255
222 236 255
222 236 255
222 236 255
222 236 255
222 236 255
222 236 255
222 236 255
222 236 255
222 236 255
222 236 255
222 236 255
196 204 218
114 89 72
114 89 72
112 88 71
110 87 70
204 214 229
222 236 255
189 202 222
115 124 146
108 116 151
116 131 169
111 126 162
186 197 219
222 236 255
222 236 255
222 236 255
196 204 215
166 173 181
161 170 181
160 169 181
163 171 181
176 180 186
220 233 251
222 236 255
222 236 255
222 236 255
222 236 255
222 236 255
222 236 255
222 236 255
222 236 255
222 236 255
222 236 255
222 236 255
222 236 255
188 203 223
186 201 221
183 198 219
180 196 217
178 194 215
175 191 212
176 192 213
173 188 210
173 187 208
171 187 209
168 184 206
163 180 201
156 177 202
168 167 197
152 173 187
132 139 143
104 81 65
102 79 64
101 78 63
100 77 63
128 152 160
134 154 187
177 184 205
185 201 223
185 201 222
187 201 226
189 205 221
154 166 186
131 165 191
153 170 193
143 156 178
153 158 157
171 172 174
173 175 177
174 175 177
176 177 179
175 175 176
166 178 198
165 177 198
168 183 210
169 185 207
171 187 209
173 189 210
180 195 215
178 193 215
180 195 216
180 195 217
182 197 218
187 202 223
186 201 222
120 124 134
115 132 155
135 154 180
88 108 152
99 117 152
114 130 160
115 116 149
105 99 110
107 107 93
103 105 134
115 122 156
120 140 179
93 100 151
84 66 99
132 123 119
77 78 114
82 58 76
88 64 64
90 67 67
86 65 82
95 111 103
121 132 158
139 158 195
206 226 251
210 228 253
209 226 251
206 225 250
141 153 176
119 124 140
88 100 136
63 70 144
101 105 122
94 99 110
92 101 109
98 99 103
101 110 114
101 105 112
105 77 163
122 109 144
91 87 150
107 95 122
119 145 162
110 125 130
132 132 148
132 149 141
79 152 103
92 102 118
128 141 141
136 124 131
118 136 150
104 68 76
93 116 125
79 105 129
75 98 110
112 140 147
94 139 167
119 140 164
98 94 114
96 80 120
93 70 87
77 108 125
78 112 158
119 145 148
95 98 88
95 88 73
117 91 135
92 54 140
106 101 151
54 49 63
104 87 139
127 79 123
91 127 113
94 132 133
115 163 173
142 184 199
168 200 225
156 163 192
113 109 158
124 94 148
110 82 77
118 132 157
104 118 143
99 103 107
100 104 109
99 102 107
87 90 97
89 94 116
70 83 118
110 118 160
119 137 153
104 128 98
123 133 150
88 116 110
128 141 164
95 116 137
83 127 115
150 172 198
50 120 166
119 137 150
111 84 87
89 77 81
74 84 61
82 94 119
86 148 127
110 151 144
103 135 157
121 137 166
98 105 148
111 134 133
106 136 115
109 127 137
125 142 166
93 111 181
93 115 143
49 104 69
112 106 143
133 129 151
95 109 133
52 109 95
101 107 143
98 85 105
61 72 91
121 144 157
100 104 139
115 49 118
130 142 166
106 111 106
64 88 124
89 97 104
112 69 106
62 78 154
86 136 164
102 115 130
91 77 83
113 123 138
128 131 155
80 69 109
85 122 116
114 128 155
129 144 173
107 126 136
143 167 185
133 130 174
119 157 154
96 119 143
114 122 150
136 104 142
145 171 196
144 182 217
114 138 161
101 120 118
84 81 126
66 91 110
57 124 97
70 91 95
80 83 104
122 140 163
102 120 135
80 107 92
31 68 36
46 79 55
126 145 170
90 104 159
115 100 145
96 77 104
66 85 123
76 75 144
127 140 161
59 89 103
79 73 106
91 65 144
67 49 180
110 126 171
79 83 147
83 76 126
149 167 192
85 100 128
86 109 114
70 108 95
118 72 106
120 70 114
108 128 149
124 137 158
99 73 63
123 106 118
119 131 149
100 120 148
77 116 119
61 90 163
111 139 144
102 138 145
137 152 168
141 157 170
62 114 70
98 117 116
83 122 117
106 91 117
98 120 155
97 142 163
77 132 140
91 95 152
105 130 140
58 122 46
103 133 133
114 129 150
110 124 145
129 147 170
99 119 127
60 81 49
72 89 84
93 114 100
119 139 149
130 149 173
109 92 127
89 49 97
80 72 112
91 87 119
150 101 108
116 90 103
67 83 104
106 111 136
111 83 58
83 84 106
49 107 140
113 115 126
127 109 104
50 72 158
62 80 146
107 122 152
119 122 146
135 161 151
137 166 161
126 141 163
83 97 84
86 85 58
99 110 141
54 134 215
81 121 176
103 95 123
118 98 127
53 101 146
144 164 184
144 160 174
131 79 174
125 68 170
114 79 114
140 82 118
46 62 137
73 95 146
104 126 145
75 96 98
126 139 144
63 121 23
88 124 131
119 137 187
132 151 174
129 147 168
136 136 178
132 73 177
117 106 151
81 101 29
103 100 98
129 142 168
87 87 110
62 47 74
93 100 122
85 126 152
74 131 159
117 123 143
127 143 166
123 139 161
102 102 109
68 111 116
118 174 194
133 182 207
104 74 44
102 113 141
13 26 95
67 78 119
129 147 171
66 63 82
62 55 75
130 147 170
72 112 93
111 138 142
125 143 169
74 110 159
112 135 167
140 86 97
153 40 35
123 122 143
131 149 173
131 146 173
112 43 174
80 8 184
82 21 155
114 67 100
105 115 143
113 130 156
127 147 169
189 154 199
182 150 203
111 118 139
73 87 200
70 83 197
118 135 177
134 151 174
121 127 158
82 77 117
113 101 150
107 81 120
112 27 121
116 89 137
101 111 131
74 75 93
122 138 160
84 141 148
51 178 141
88 167 149
131 149 172
137 183 180
138 201 186
115 143 154
92 123 141
153 94 188
162 88 192
123 132 159
91 103 127
107 98 120
134 50 69
104 55 72
90 99 117
123 141 162
98 102 165
117 117 193
120 142 152
130 147 170
129 145 168
123 122 141
117 90 103
129 140 164
117 132 159
39 54 105
55 62 115
69 54 134
15 8 80
33 32 83
108 80 98
110 52 71
125 129 151
127 111 144
122 103 138
125 137 163
84 96 166
76 89 164
124 140 169
129 146 172
44 88 72
36 82 64
94 115 126
130 127 157
106 69 116
116 115 147
122 138 161
122 139 162
123 140 163
103 147 150
43 159 122
53 146 169
89 135 204
102 156 147
109 161 144
116 136 153
125 143 167
139 75 166
143 72 169
132 139 172
131 149 174
121 123 137
93 104 59
108 108 99
127 144 168
128 142 177
87 23 214
89 22 219
140 152 199
134 152 176
99 145 120
63 148 34
108 147 132
131 147 171
109 124 150
21 36 84
41 54 95
119 135 160
135 171 163
148 193 182
112 103 97
102 51 65
113 103 121
126 138 163
122 133 158
124 137 164
120 134 161
119 135 162
124 141 168
127 143 169
94 115 127
70 93 96
146 149 169
174 172 200
173 167 192
123 137 160
129 146 170
130 149 173
128 148 170
121 143 162
93 123 138
90 92 175
79 99 181
81 122 163
102 132 134
124 143 163
124 140 164
117 115 148
86 89 110
83 103 111
123 137 161
85 133 113
38 133 57
48 130 67
127 143 167
129 145 173
89 69 182
78 47 176
127 142 175
132 149 174
80 129 92
104 93 163
117 86 187
128 135 177
122 139 162
98 112 133
109 124 145
111 128 147
131 167 149
144 180 162
165 184 185
170 184 211
169 180 203
136 155 179
135 153 178
135 153 178
134 152 176
133 151 176
132 151 174
129 147 170
122 139 159
120 136 157
132 137 157
144 137 156
123 119 140
132 149 172
134 152 176
132 152 175
131 151 174
130 150 173
110 104 155
97 68 146
92 65 139
112 129 163
116 124 158
124 137 166
130 147 172
111 128 148
24 59 43
24 60 44
96 115 128
106 134 141
34 110 50
70 121 96
116 127 169
102 103 173
108 116 160
113 125 157
119 135 163
121 139 163
113 126 155
107 63 172
108 67 172
105 138 126
106 172 92
122 156 149
129 148 170
124 142 164
115 139 145
110 137 135
122 133 146
152 159 174
154 160 177
137 156 180
136 155 179
136 154 178
136 154 179
136 154 178
135 154 178
135 153 177
135 153 176
133 150 174
130 146 169
120 125 144
121 130 150
130 146 169
133 150 174
131 150 174
131 149 174
128 147 171
110 114 154
83 57 123
84 65 125
95 83 136
85 44 125
87 52 126
124 140 167
122 141 162
36 61 55
22 50 37
106 124 141
116 135 153
102 129 131
106 133 139
74 61 163
72 56 163
81 71 166
125 137 169
126 129 171
125 141 165
119 136 160
98 86 149
89 89 128
87 163 8
90 169 8
95 169 53
132 151 172
128 147 168
126 145 162
120 138 153
121 136 151
116 126 141
122 135 154
137 155 180
137 156 180
137 155 179
137 155 179
137 155 179
136 155 179
136 154 178
135 153 177
133 149 173
131 147 169
131 145 167
131 145 168
133 149 173
132 150 175
130 148 174
129 146 171
127 144 169
115 129 155
100 108 134
109 120 145
88 65 123
80 41 115
76 39 110
111 119 149
120 137 158
102 117 133
98 112 127
115 132 152
108 142 138
73 166 55
70 166 48
66 115 109
58 45 131
70 44 139
117 40 164
120 23 169
122 76 169
123 138 165
114 127 151
105 122 136
78 142 34
80 150 7
92 153 72
133 151 174
132 151 173
133 151 175
131 149 171
127 143 165
126 141 161
126 140 161
137 156 180
137 155 180
137 155 180
138 156 180
137 156 180
136 155 180
137 155 179
136 154 179
136 154 178
136 154 179
136 154 178
136 154 178
136 154 178
135 153 177
133 151 175
132 150 174
128 145 170
126 141 166
124 139 163
122 137 162
111 118 148
77 59 109
90 85 123
125 142 166
123 140 163
120 138 160
120 137 159
122 139 162
97 150 116
65 156 41
64 153 40
63 140 53
88 92 109
119 122 87
125 111 108
111 41 147
114 23 157
126 138 167
125 144 164
120 139 157
111 132 139
96 130 108
118 141 151
129 148 170
131 150 172
133 152 175
134 153 176
135 153 176
135 154 177
135 153 177
138 156 180
137 155 180
137 155 179
137 156 180
138 156 180
136 155 179
137 156 180
136 155 179
137 155 180
137 155 179
136 154 179
135 154 178
136 155 179
135 154 178
135 153 177
134 152 176
134 152 176
133 151 175
130 148 172
122 137 161
119 132 155
108 119 140
111 123 145
120 135 158
124 140 165
125 142 166
127 146 169
129 147 172
110 142 141
59 139 39
56 134 34
81 130 87
132 143 67
135 146 48
135 146 48
121 115 87
107 63 146
127 144 169
128 146 168
127 146 165
120 140 155
117 137 149
119 139 152
128 147 166
129 149 169
132 151 173
134 153 175
136 155 178
135 154 177
137 155 179
138 156 180
137 155 180
137 155 180
137 156 180
138 156 180
137 155 180
136 155 179
137 155 179
137 156 180
138 156 180
136 155 179
136 154 179
136 155 179
136 154 178
136 154 178
135 153 178
134 152 176
134 152 176
131 149 173
129 146 170
128 144 168
125 142 165
128 144 167
128 145 169
129 147 171
128 147 171
128 147 168
124 143 164
121 140 159
102 130 129
90 122 112
110 127 134
127 136 50
126 137 45
128 138 45
123 131 75
118 130 157
125 141 165
128 145 169
129 147 170
130 149 171
132 151 174
130 149 171
133 152 175
134 153 175
135 154 177
135 154 177
136 155 179
135 154 178
136 155 178
137 156 180
138 156 180
137 155 180
138 156 180
137 156 180
137 156 180
137 155 180
137 155 180
137 155 179
137 156 180
136 155 179
137 155 179
137 156 180
137 155 179
136 154 178
136 154 179
135 154 178
135 153 177
135 153 178
134 152 176
135 153 177
133 152 176
133 151 175
133 152 175
133 151 174
132 151 174
129 148 169
125 145 164
119 140 154
111 131 143
107 126 137
108 124 139
114 125 92
116 125 43
116 125 45
114 125 109
116 125 151
122 135 160
128 143 168
131 147 172
132 150 174
134 152 176
134 152 176
134 153 177
134 153 176
135 154 177
136 154 178
136 155 179
136 154 178
136 155 179
